src/img/food/feature-6.svg

<svg width="62" height="63" viewBox="0 0 62 63" fill="none" xmlns="http://www.w3.org/2000/svg">
<path fill-rule="evenodd" clip-rule="evenodd" d="M20.7339 61.0144C21.3994 61.0144 21.9395 60.4757 21.9395 59.8113C21.9395 59.1469 21.3994 58.6082 20.7339 58.6084H2.41113V29.8881L5.68457 2.40625H15.7314V14.8646C15.7314 15.2785 15.9448 15.6635 16.2959 15.8837C16.647 16.1035 17.0874 16.1279 17.4609 15.9483L21.2988 14.1001L25.1372 15.9483C25.5107 16.1279 25.9507 16.1036 26.3022 15.8837C26.6533 15.6633 26.8667 15.2785 26.8667 14.8646V2.40625H38.6758L41.3418 29.2017C41.4209 29.8615 42.022 30.3331 42.6821 30.2532C43.3433 30.1741 43.8149 29.5753 43.7358 28.9156L40.9424 1.06012C40.8701 0.455139 40.356 0 39.7456 0H4.61377C4.00342 0 3.48926 0.455811 3.41699 1.06116C3.41699 1.06116 0 29.7693 0 29.8167V59.8113C0 60.4757 0.539551 61.0144 1.20557 61.0144H20.7339ZM10.5269 37.8724H10.1641C9.49805 37.8724 8.9585 38.4111 8.9585 39.0756C8.9585 39.74 9.49805 40.2787 10.1641 40.2787H10.5269C11.1924 40.2787 11.7324 39.74 11.7324 39.0756C11.7324 38.4111 11.1924 37.8724 10.5269 37.8724ZM17.8765 42.5774H18.2393C18.9053 42.5774 19.4448 43.1161 19.4448 43.7805C19.4448 44.4449 18.9048 44.9836 18.2393 44.9836H17.8765C17.2104 44.9836 16.6709 44.4449 16.6709 43.7805C16.6709 43.1161 17.2104 42.5774 17.8765 42.5774ZM18.2393 54.3938C18.9048 54.3938 19.4448 53.8551 19.4448 53.1907C19.4448 52.526 18.9053 51.9875 18.2393 51.9875H17.8765C17.2104 51.9875 16.6709 52.5262 16.6709 53.1907C16.6709 53.8551 17.2104 54.3938 17.8765 54.3938H18.2393ZM10.1641 49.6888H10.5269C11.1924 49.6888 11.7324 49.1501 11.7324 48.4857C11.7324 47.8213 11.1924 47.2826 10.5269 47.2826H10.1641C9.49805 47.2826 8.9585 47.8213 8.9585 48.4857C8.9585 49.1501 9.49805 49.6888 10.1641 49.6888ZM12.79 44.9836H12.4272C11.7612 44.9836 11.2217 44.4449 11.2217 43.7805C11.2217 43.1161 11.7612 42.5774 12.4272 42.5774H12.79C13.4561 42.5774 13.9956 43.1161 13.9956 43.7805C13.9956 44.4449 13.4561 44.9836 12.79 44.9836ZM18.1426 12.9484L20.7754 11.6806C21.1064 11.5211 21.4922 11.5213 21.8228 11.6806L24.4556 12.9484V2.40625H18.1426V12.9484ZM53.4546 45.5981C53.4546 44.9337 53.9941 44.395 54.6602 44.395C55.3257 44.395 55.8657 44.9337 55.8657 45.5981C55.8657 52.0762 50.5845 57.3462 44.0938 57.3462C43.4277 57.3462 42.8882 56.8075 42.8882 56.1431C42.8882 55.4785 43.4277 54.9399 44.0938 54.9399C49.2554 54.9399 53.4546 50.7493 53.4546 45.5981ZM61.8965 36.3442V46.1079C61.8965 55.3915 54.3286 62.9441 45.0259 62.9441H39.2993C29.9966 62.9441 22.4287 55.3915 22.4287 46.1079V36.3442C22.4287 35.6798 22.9683 35.1411 23.6343 35.1411H25.1807H59.144H60.6904C61.3564 35.1411 61.8965 35.6798 61.8965 36.3442ZM58.2705 37.5474H59.4854V46.1079C59.4854 54.0647 52.999 60.5378 45.0259 60.5378H39.2993C31.3262 60.5378 24.8398 54.0647 24.8398 46.1079V37.5474H26.0542H26.106H58.2188H58.2705ZM12.4272 54.3938H12.79C13.4561 54.3938 13.9956 53.8551 13.9956 53.1907C13.9956 52.5262 13.4561 51.9875 12.79 51.9875H12.4272C11.7612 51.9875 11.2217 52.5262 11.2217 53.1907C11.2217 53.8551 11.7612 54.3938 12.4272 54.3938ZM16.2588 48.4857C16.2588 49.1501 15.7188 49.6888 15.0532 49.6888H14.6904C14.0244 49.6888 13.4849 49.1501 13.4849 48.4857C13.4849 47.8213 14.0244 47.2826 14.6904 47.2826H15.0532C15.7188 47.2826 16.2588 47.8213 16.2588 48.4857ZM7.34082 42.5774H6.97803C6.31201 42.5774 5.77246 43.1161 5.77246 43.7805C5.77246 44.4449 6.31201 44.9836 6.97803 44.9836H7.34082C8.00635 44.9836 8.54639 44.4449 8.54639 43.7805C8.54639 43.1161 8.00635 42.5774 7.34082 42.5774ZM6.97803 51.9875H7.34082C8.00635 51.9875 8.54639 52.5262 8.54639 53.1907C8.54639 53.8551 8.00635 54.3938 7.34082 54.3938H6.97803C6.31201 54.3938 5.77246 53.8551 5.77246 53.1907C5.77246 52.5262 6.31201 51.9875 6.97803 51.9875Z" transform="translate(0.0239258)" fill="#F3084E"/>
</svg>

<svg width="62" height="63" fill="none" xmlns="http://www.w3.org/2000/svg"><path fill-rule="evenodd" clip-rule="evenodd" d="M20.758 61.014c.665 0 1.205-.538 1.205-1.203 0-.664-.54-1.203-1.205-1.203H2.435v-28.72L5.708 2.406h10.047v12.459a1.203 1.203 0 0 0 1.73 1.083l3.838-1.848 3.838 1.848a1.204 1.204 0 0 0 1.73-1.084V2.407H38.7l2.666 26.796a1.205 1.205 0 0 0 2.394-.286L40.966 1.06A1.204 1.204 0 0 0 39.77 0H4.638c-.61 0-1.125.456-1.197 1.061 0 0-3.417 28.708-3.417 28.756V59.81c0 .665.54 1.203 1.205 1.203h19.529zM10.55 37.872h-.363a1.204 1.204 0 1 0 0 2.407h.363c.665 0 1.205-.539 1.205-1.203 0-.665-.54-1.204-1.205-1.204zm7.35 4.705h.362a1.204 1.204 0 1 1 0 2.407H17.9a1.204 1.204 0 1 1 0-2.407zm.362 11.817a1.204 1.204 0 0 0 0-2.406H17.9a1.204 1.204 0 1 0 0 2.406h.363zm-8.075-4.705h.363c.665 0 1.205-.539 1.205-1.203 0-.665-.54-1.203-1.205-1.203h-.363a1.204 1.204 0 1 0 0 2.406zm2.626-4.705h-.363a1.204 1.204 0 1 1 0-2.407h.363a1.204 1.204 0 1 1 0 2.407zm5.353-32.036l2.632-1.267c.331-.16.717-.16 1.048 0l2.633 1.267V2.406h-6.313v10.542zm35.312 32.65a1.205 1.205 0 1 1 2.411 0c0 6.478-5.282 11.748-11.772 11.748a1.204 1.204 0 1 1 0-2.406c5.161 0 9.36-4.19 9.36-9.342zm8.441-9.254v9.764c0 9.284-7.567 16.836-16.87 16.836h-5.727c-9.302 0-16.87-7.553-16.87-16.836v-9.764c0-.664.54-1.203 1.205-1.203h37.056c.666 0 1.206.539 1.206 1.203zm-3.626 1.203h1.215v8.56c0 7.958-6.486 14.43-14.46 14.43h-5.726c-7.973 0-14.46-6.472-14.46-14.43v-8.56H58.295zM12.451 54.394h.363a1.204 1.204 0 1 0 0-2.407h-.363a1.204 1.204 0 1 0 0 2.407zm3.832-5.908c0 .664-.54 1.203-1.206 1.203h-.363a1.204 1.204 0 1 1 0-2.406h.363c.666 0 1.206.538 1.206 1.203zm-8.918-5.909h-.363a1.204 1.204 0 1 0 0 2.407h.363c.665 0 1.205-.54 1.205-1.203 0-.665-.54-1.204-1.205-1.204zm-.363 9.41h.363a1.205 1.205 0 0 1 0 2.406h-.363a1.204 1.204 0 1 1 0-2.406z" fill="#F3084E"/></svg>
